final/muffins.svg

<?xml version="1.0" encoding="iso-8859-1"?>
<!-- Generator: Adobe Illustrator 10, SVG Export Plug-In . SVG Version: 3.0.0 Build 76)  -->
<!DOCTYPE svg PUBLIC "-//W3C//DTD SVG 1.0//EN"    "http://www.w3.org/TR/2001/REC-SVG-20010904/DTD/svg10.dtd" [
	<!ENTITY ns_flows "http://ns.adobe.com/Flows/1.0/">
	<!ENTITY ns_svg "http://www.w3.org/2000/svg">
	<!ENTITY ns_xlink "http://www.w3.org/1999/xlink">
]>
<svg  xmlns="&ns_svg;" xmlns:xlink="&ns_xlink;" xmlns:a="http://ns.adobe.com/AdobeSVGViewerExtensions/3.0/"
	 width="468.311" height="534.34" viewBox="0 0 468.311 534.34" style="overflow:visible;enable-background:new 0 0 468.311 534.34"
	 xml:space="preserve">
	<style type="text/css">
	<![CDATA[
		@font-face{font-family:'Times-Roman';src:url(6F810E24.cef)}
	]]>
	</style>
	<g id="Layer_1">
		<text transform="matrix(1 0 0 1 0 471.377)"><tspan x="0" y="0" style="font-family:'Times-Roman'; font-size:12;">&quot;Muffins&quot;</tspan><tspan x="0" y="14.5" style="font-family:'Times-Roman'; font-size:12;">Copyright </tspan><tspan x="51.668" y="14.5" style="font-family:'Times-Roman'; font-size:12;">&#xA9;</tspan><tspan x="60.785" y="14.5" style="font-family:'Times-Roman'; font-size:12;"> 2000 Rob Myers http://www.robmyers.org/ .</tspan><tspan x="0" y="29" style="font-family:'Times-Roman'; font-size:12;">This work is licensed under the Creative Commons Attribution-ShareAlike License.</tspan><tspan x="0" y="43.5" style="font-family:'Times-Roman'; font-size:12;">To view a copy of this license, visit http://creativecommons.org/licenses/by-sa/1.0/ </tspan><tspan x="0" y="58" style="font-family:'Times-Roman'; font-size:12;">or send a letter to Creative Commons, 559 Nathan Abbott Way, Stanford, California 94305, USA.</tspan></text>
		<g>
			<g>
				<path style="fill:#060D3C;stroke:#060D3C;stroke-width:7.992;" d="M300.344,157.725c9.432,4.968,13.032,16.776,7.992,26.208
					c-4.968,9.432-16.775,13.104-26.136,8.136c-9.433-5.04-13.032-16.776-8.063-26.208
					C279.176,156.357,290.912,152.757,300.344,157.725z"/>
				<path style="fill:#060D3C;stroke:#060D3C;stroke-width:7.992;" d="M171.032,238.726c9.864,5.184,13.824,17.207,8.856,26.64
					c-4.968,9.433-17.136,12.888-27.072,7.632c-9.864-5.184-13.824-17.208-8.856-26.64C149,236.925,161.096,233.47,171.032,238.726z
					"/>
				<path style="fill:#060D3C;stroke:#060D3C;stroke-width:7.992;" d="M298.4,308.277c10.871,5.76,14.543,20.017,8.352,31.896
					c-6.264,11.809-20.232,16.776-31.031,11.017c-10.873-5.761-14.617-20.017-8.353-31.824
					C273.632,307.485,287.6,302.517,298.4,308.277z"/>
			</g>
			<path style="fill:#36052E;stroke:#36052E;stroke-width:7.992;" d="M378.32,452.565l-28.584-1.584l3.672-129.6
				c0.432-14.904-2.809-28.225-7.848-38.16c-7.129-12.816-18.072-21.024-33.408-23.977c-9.864,2.016-19.368,1.944-28.873-0.288
				c-12.168,2.16-21.743,7.416-28.439,16.128c-1.729,5.4-4.32,10.656-7.703,15.696c-2.089,6.912-3.385,15.192-3.673,24.552
				l-3.672,129.672l-29.52-1.656l3.384-117.359c0-1.8,0.072-3.6,0.144-5.328c-4.824,3.024-10.152,6.049-15.984,9.072L93.2,384.165
				l-13.968-24.912l115.56-60.119c11.376-5.832,20.304-13.393,26.352-21.168c1.44-4.033,3.096-7.633,4.896-10.944
				c1.008-1.8,2.088-3.456,3.24-5.112c3.025-11.376,1.08-23.544-6.264-36.648c-11.808-21.024-27.072-32.112-46.296-32.184
				c-9.936,0.144-22.176,3.528-35.496,10.44l-115.56,60.048l-14.4-25.633l104.688-54.431c23.4-12.168,42.336-18,58.32-18.288
				c11.88,0,22.68,2.52,32.472,7.56c0.648-12.456,3.744-27.072,9.648-44.208l37.656-110.52l27.216,9.576l-21.023,61.56l62.64-67.608
				l22.177,19.656l-87.769,94.032c-10.296,11.664-16.272,22.968-19.009,33.336c-3.887,17.64,1.801,32.472,17.713,46.152
				c2.664,2.592,5.328,4.896,7.992,6.912c1.943,0.936,4.031,1.8,6.264,2.592c22.896,8.064,41.615,6.335,55.439-6.336
				c7.057-6.768,13.537-17.424,18.289-31.464l41.688-122.04l28.008,9.864l-29.52,86.472l42.912-45.936l22.176,19.584l-79.2,85.536
				c-9.504,10.008-18.288,17.856-26.496,23.976c13.177,6.912,22.824,17.28,29.088,31.104c6.769,14.4,9.792,33.912,9,60.192
				L378.32,452.565z"/>
			<path style="fill:#D0D4E8;stroke:#9EA9D0;stroke-width:7.992;" d="M367.736,434.781l-27.793-1.151l5.328-128.809
				c0.648-14.76-2.304-27.936-7.127-37.729c-6.696-12.672-17.281-20.592-32.185-23.399c-9.647,2.16-18.937,2.231-28.08,0.144
				c-11.952,2.305-21.312,7.704-28.008,16.416c-1.728,5.4-4.32,10.656-7.704,15.696c-2.16,6.912-3.527,15.12-3.889,24.408
				l-5.399,128.808l-28.728-1.224l4.896-116.568c0.072-1.8,0.144-3.6,0.288-5.327c-4.752,3.096-10.008,6.119-15.696,9.215
				l-102.672,55.44L77.72,346.222l113.4-61.272c11.088-5.976,19.872-13.608,25.92-21.384c1.44-3.96,3.096-7.633,4.896-10.944
				c1.008-1.728,2.088-3.456,3.24-5.112c3.096-11.304,1.368-23.328-5.616-36.288c-11.16-20.664-25.92-31.536-44.64-31.32
				c-9.72,0.288-21.672,3.816-34.704,10.8l-113.4,61.272l-13.68-25.272l102.672-55.44c23.04-12.456,41.544-18.504,57.096-18.936
				c11.592-0.216,22.104,2.088,31.536,7.056c0.792-12.456,4.032-26.928,10.008-44.064L252.68,5.085l26.353,9.144l-21.312,61.416
				l61.92-68.04l21.383,19.224l-86.832,94.608c-10.151,11.736-16.127,23.04-18.936,33.336c-4.104,17.568,1.296,32.256,16.561,45.576
				c2.592,2.52,5.111,4.752,7.703,6.768c1.944,0.864,3.961,1.728,6.121,2.448c22.176,7.704,40.392,5.688,54-7.056
				c6.983-6.84,13.463-17.496,18.287-31.464l42.264-121.752l27.145,9.432l-29.952,86.256l42.479-46.224l21.385,19.152l-78.336,86.04
				c-9.432,10.008-18.072,18-26.137,24.12c12.673,6.695,21.961,16.848,27.865,30.527c6.407,14.185,9.071,33.48,7.991,59.617
				L367.736,434.781z"/>
			<g>
				<path style="fill:#FEE3E3;stroke:#FCC5CD;stroke-width:7.992;" d="M305.6,146.062c9.36,4.968,13.032,16.776,7.992,26.208
					c-4.968,9.504-16.775,13.104-26.208,8.136c-9.432-4.968-13.032-16.776-7.991-26.208
					C284.359,144.765,296.168,141.093,305.6,146.062z"/>
				<path style="fill:#FEE3E3;stroke:#FCC5CD;stroke-width:7.992;" d="M176.216,227.062c9.936,5.256,13.896,17.208,8.928,26.64
					c-5.04,9.504-17.136,12.888-27.072,7.704c-9.864-5.256-13.896-17.208-8.856-26.712
					C154.184,225.261,166.352,221.805,176.216,227.062z"/>
				<path style="fill:#FEE3E3;stroke:#FCC5CD;stroke-width:7.992;" d="M303.656,296.613c10.8,5.76,14.544,20.088,8.279,31.896
					c-6.191,11.809-20.16,16.776-30.959,11.017c-10.873-5.688-14.617-20.017-8.353-31.824S292.784,290.925,303.656,296.613z"/>
			</g>
		</g>
	</g>
</svg>

<?xml version="1.0" encoding="UTF-8" standalone="no"?>
<!-- Generator: Adobe Illustrator 10, SVG Export Plug-In . SVG Version: 3.0.0 Build 76)  -->
<svg
   xmlns:dc="http://purl.org/dc/elements/1.1/"
   xmlns:cc="http://creativecommons.org/ns#"
   xmlns:rdf="http://www.w3.org/1999/02/22-rdf-syntax-ns#"
   xmlns:svg="http://www.w3.org/2000/svg"
   xmlns="http://www.w3.org/2000/svg"
   xmlns:sodipodi="http://sodipodi.sourceforge.net/DTD/sodipodi-0.dtd"
   xmlns:inkscape="http://www.inkscape.org/namespaces/inkscape"
   width="445.96899"
   height="455.47202"
   viewBox="0 0 468.311 534.34"
   style="overflow:visible"
   xml:space="preserve"
   id="svg2701"
   sodipodi:version="0.32"
   inkscape:version="0.46"
   sodipodi:docname="muffins.svg"
   inkscape:output_extension="org.inkscape.output.svg.inkscape"
   version="1.0"><metadata
   id="metadata2747"><rdf:RDF><cc:Work
       rdf:about=""><dc:format>image/svg+xml</dc:format><dc:type
         rdf:resource="http://purl.org/dc/dcmitype/StillImage" /></cc:Work></rdf:RDF></metadata><defs
   id="defs2745"><inkscape:perspective
   sodipodi:type="inkscape:persp3d"
   inkscape:vp_x="0 : 267.17001 : 1"
   inkscape:vp_y="0 : 1000 : 0"
   inkscape:vp_z="468.311 : 267.17001 : 1"
   inkscape:persp3d-origin="234.1555 : 178.11334 : 1"
   id="perspective2749" />
		
		
	</defs><sodipodi:namedview
   inkscape:window-height="670"
   inkscape:window-width="640"
   inkscape:pageshadow="2"
   inkscape:pageopacity="0.0"
   guidetolerance="10.0"
   gridtolerance="10.0"
   objecttolerance="10.0"
   borderopacity="1.0"
   bordercolor="#666666"
   pagecolor="#ffffff"
   id="base"
   showgrid="false"
   inkscape:zoom="0.86461799"
   inkscape:cx="234.1555"
   inkscape:cy="267.17001"
   inkscape:window-x="93"
   inkscape:window-y="70"
   inkscape:current-layer="svg2701" />
	<style
   type="text/css"
   id="style2703">
	
		@font-face{font-family:'Times-Roman';src:url(6F810E24.cef)}
	
	</style>
	
<g
   transform="matrix(1.1731566,0,0,1.1731566,-35.966736,-1.2775505)"
   style="overflow:visible"
   id="g2722">
			<g
   id="g2724">
				<path
   id="path2726"
   d="M 300.344,157.725 C 309.776,162.693 313.376,174.501 308.336,183.933 C 303.368,193.365 291.561,197.037 282.2,192.069 C 272.767,187.029 269.168,175.293 274.137,165.861 C 279.176,156.357 290.912,152.757 300.344,157.725 z"
   style="fill:#060d3c;stroke:#060d3c;stroke-width:7.9920001" />
				<path
   id="path2728"
   d="M 171.032,238.726 C 180.896,243.91 184.856,255.933 179.888,265.366 C 174.92,274.799 162.752,278.254 152.816,272.998 C 142.952,267.814 138.992,255.79 143.96,246.358 C 149,236.925 161.096,233.47 171.032,238.726 z"
   style="fill:#060d3c;stroke:#060d3c;stroke-width:7.9920001" />
				<path
   id="path2730"
   d="M 298.4,308.277 C 309.271,314.037 312.943,328.294 306.752,340.173 C 300.488,351.982 286.52,356.949 275.721,351.19 C 264.848,345.429 261.104,331.173 267.368,319.366 C 273.632,307.485 287.6,302.517 298.4,308.277 z"
   style="fill:#060d3c;stroke:#060d3c;stroke-width:7.9920001" />
			</g>
			<path
   id="path2732"
   d="M 378.32,452.565 L 349.736,450.981 L 353.408,321.381 C 353.84,306.477 350.599,293.156 345.56,283.221 C 338.431,270.405 327.488,262.197 312.152,259.244 C 302.288,261.26 292.784,261.188 283.279,258.956 C 271.111,261.116 261.536,266.372 254.84,275.084 C 253.111,280.484 250.52,285.74 247.137,290.78 C 245.048,297.692 243.752,305.972 243.464,315.332 L 239.792,445.004 L 210.272,443.348 L 213.656,325.989 C 213.656,324.189 213.728,322.389 213.8,320.661 C 208.976,323.685 203.648,326.71 197.816,329.733 L 93.2,384.165 L 79.232,359.253 L 194.792,299.134 C 206.168,293.302 215.096,285.741 221.144,277.966 C 222.584,273.933 224.24,270.333 226.04,267.022 C 227.048,265.222 228.128,263.566 229.28,261.91 C 232.305,250.534 230.36,238.366 223.016,225.262 C 211.208,204.238 195.944,193.15 176.72,193.078 C 166.784,193.222 154.544,196.606 141.224,203.518 L 25.664,263.566 L 11.264,237.933 L 115.952,183.502 C 139.352,171.334 158.288,165.502 174.272,165.214 C 186.152,165.214 196.952,167.734 206.744,172.774 C 207.392,160.318 210.488,145.702 216.392,128.566 L 254.048,18.046 L 281.264,27.622 L 260.241,89.182 L 322.881,21.574 L 345.058,41.23 L 257.289,135.262 C 246.993,146.926 241.017,158.23 238.28,168.598 C 234.393,186.238 240.081,201.07 255.993,214.75 C 258.657,217.342 261.321,219.646 263.985,221.662 C 265.928,222.598 268.016,223.462 270.249,224.254 C 293.145,232.318 311.864,230.589 325.688,217.918 C 332.745,211.15 339.225,200.494 343.977,186.454 L 385.665,64.414 L 413.673,74.278 L 384.153,160.75 L 427.065,114.814 L 449.241,134.398 L 370.041,219.934 C 360.537,229.942 351.753,237.79 343.545,243.91 C 356.722,250.822 366.369,261.19 372.633,275.014 C 379.402,289.414 382.425,308.926 381.633,335.206 L 378.32,452.565 z"
   style="fill:#36052e;stroke:#36052e;stroke-width:7.9920001" />
			<path
   id="path2734"
   d="M 367.736,434.781 L 339.943,433.63 L 345.271,304.821 C 345.919,290.061 342.967,276.885 338.144,267.092 C 331.448,254.42 320.863,246.5 305.959,243.693 C 296.312,245.853 287.022,245.924 277.879,243.837 C 265.927,246.142 256.567,251.541 249.871,260.253 C 248.143,265.653 245.551,270.909 242.167,275.949 C 240.007,282.861 238.64,291.069 238.278,300.357 L 232.879,429.165 L 204.151,427.941 L 209.047,311.373 C 209.119,309.573 209.191,307.773 209.335,306.046 C 204.583,309.142 199.327,312.165 193.639,315.261 L 90.967,370.701 L 77.72,346.222 L 191.12,284.95 C 202.208,278.974 210.992,271.342 217.04,263.566 C 218.48,259.606 220.136,255.933 221.936,252.622 C 222.944,250.894 224.024,249.166 225.176,247.51 C 228.272,236.206 226.544,224.182 219.56,211.222 C 208.4,190.558 193.64,179.686 174.92,179.902 C 165.2,180.19 153.248,183.718 140.216,190.702 L 26.816,251.974 L 13.136,226.702 L 115.808,171.262 C 138.848,158.806 157.352,152.758 172.904,152.326 C 184.496,152.11 195.008,154.414 204.44,159.382 C 205.232,146.926 208.472,132.454 214.448,115.318 L 252.68,5.085 L 279.033,14.229 L 257.721,75.645 L 319.641,7.605 L 341.024,26.829 L 254.192,121.437 C 244.041,133.173 238.065,144.477 235.256,154.773 C 231.152,172.341 236.552,187.029 251.817,200.349 C 254.409,202.869 256.928,205.101 259.52,207.117 C 261.464,207.981 263.481,208.845 265.641,209.565 C 287.817,217.269 306.033,215.253 319.641,202.509 C 326.624,195.669 333.104,185.013 337.928,171.045 L 380.192,49.293 L 407.337,58.725 L 377.385,144.981 L 419.864,98.757 L 441.249,117.909 L 362.913,203.949 C 353.481,213.957 344.841,221.949 336.776,228.069 C 349.449,234.764 358.737,244.917 364.641,258.596 C 371.048,272.781 373.712,292.076 372.632,318.213 L 367.736,434.781 z"
   style="fill:#d0d4e8;stroke:#9ea9d0;stroke-width:7.9920001" />
			<g
   id="g2736">
				<path
   id="path2738"
   d="M 305.6,146.062 C 314.96,151.03 318.632,162.838 313.592,172.27 C 308.624,181.774 296.817,185.374 287.384,180.406 C 277.952,175.438 274.352,163.63 279.393,154.198 C 284.359,144.765 296.168,141.093 305.6,146.062 z"
   style="fill:#fee3e3;stroke:#fcc5cd;stroke-width:7.9920001" />
				<path
   id="path2740"
   d="M 176.216,227.062 C 186.152,232.318 190.112,244.27 185.144,253.702 C 180.104,263.206 168.008,266.59 158.072,261.406 C 148.208,256.15 144.176,244.198 149.216,234.694 C 154.184,225.261 166.352,221.805 176.216,227.062 z"
   style="fill:#fee3e3;stroke:#fcc5cd;stroke-width:7.9920001" />
				<path
   id="path2742"
   d="M 303.656,296.613 C 314.456,302.373 318.2,316.701 311.935,328.509 C 305.744,340.318 291.775,345.285 280.976,339.526 C 270.103,333.838 266.359,319.509 272.623,307.702 C 278.887,295.895 292.784,290.925 303.656,296.613 z"
   style="fill:#fee3e3;stroke:#fcc5cd;stroke-width:7.9920001" />
			</g>
		</g></svg>
